; generated by Slic3r Prusa Edition 1.39.1-prusa3d-linux64 on 2018-03-21 at 13:47:47

; 

; external perimeters extrusion width = 0.45mm
; perimeters extrusion width = 0.45mm
; infill extrusion width = 0.45mm
; solid infill extrusion width = 0.45mm
; top infill extrusion width = 0.40mm
; first layer extrusion width = 0.42mm

M107
M115 U3.1.1-RC5 ; tell printer latest fw version
M201 X1000 Y1000 Z200 E5000 ; sets maximum accelerations, mm/sec^2
M203 X200 Y200 Z12 E120 ; sets maximum feedrates, mm/sec
M204 S1250 T1250 ; sets acceleration (S) and retract acceleration (T)
M205 X10 Y10 Z0.4 E2.5 ; sets the jerk limits, mm/sec
M205 S0 T0 ; sets the minimum extruding and travel feed rate, mm/sec
M83  ; extruder relative mode
M104 S215 ; set extruder temp
M140 S60 ; set bed temp
M190 S60 ; wait for bed temp
M109 S215 ; wait for extruder temp
G28 W ; home all without mesh bed level
G80 ; mesh bed leveling
G1 Y-3.0 F1000.0 ; go outside print area
G92 E0.0
G1 X60.0 E9.0  F1000.0 ; intro line
G1 X100.0 E12.5  F1000.0 ; intro line
G92 E0.0
M221 S95
M900 K30; Filament gcode
G21 ; set units to millimeters
G90 ; use absolute coordinates
M83 ; use relative distances for extrusion
;BEFORE_LAYER_CHANGE
;0.2

TMC_SET_WAVE_E0

G1 E-0.80000 F2100.00000
G1 Z0.600 F10200.000
;AFTER_LAYER_CHANGE
G4 S0
TMC_SET_STEP_E0
;0.2
G1 X108.811 Y90.972 F10200.000
G1 Z0.200 F10200.000
G1 E0.80000 F2100.00000
M204 S1000
G1 F1800
G1 X109.404 Y89.993 E0.03588
G1 X110.339 Y89.142 E0.03964
G1 X110.994 Y88.805 E0.02309
G1 X112.038 Y88.541 E0.03376
G1 X137.949 Y88.544 E0.81241
G1 X138.746 Y88.705 E0.02550
G1 X139.488 Y89.033 E0.02545
G1 X140.530 Y89.926 E0.04302
G1 X141.163 Y90.910 E0.03669
G1 X141.459 Y92.038 E0.03655
G1 X141.459 Y117.912 E0.81126
G1 X141.189 Y119.028 E0.03602
G1 X140.596 Y120.007 E0.03588
G1 X139.661 Y120.858 E0.03964
G1 X139.006 Y121.195 E0.02309
G1 X137.962 Y121.459 E0.03376
G1 X112.088 Y121.459 E0.81126
G1 X110.972 Y121.189 E0.03602
G1 X109.993 Y120.596 E0.03588
G1 X109.142 Y119.661 E0.03964
G1 X108.805 Y119.006 E0.02309
G1 X108.541 Y117.962 E0.03376
G1 X108.541 Y92.088 E0.81126
G1 X108.797 Y91.030 E0.03414
G1 X109.150 Y91.140 F10200.000
G1 F1800
G1 X109.680 Y90.251 E0.03243
G1 X110.536 Y89.464 E0.03647
G1 X111.111 Y89.165 E0.02031
G1 X112.062 Y88.918 E0.03083
G1 X137.929 Y88.921 E0.81102
G1 X138.648 Y89.070 E0.02304
G1 X139.308 Y89.365 E0.02266
G1 X140.262 Y90.192 E0.03960
G1 X140.806 Y91.037 E0.03149
G1 X141.082 Y92.063 E0.03331
G1 X141.082 Y117.890 E0.80978
G1 X140.850 Y118.860 E0.03129
G1 X140.320 Y119.749 E0.03243
G1 X139.464 Y120.536 E0.03647
G1 X138.889 Y120.835 E0.02031
G1 X137.938 Y121.082 E0.03082
G1 X112.110 Y121.082 E0.80980
G1 X111.140 Y120.850 E0.03129
G1 X110.251 Y120.320 E0.03243
G1 X109.464 Y119.464 E0.03647
G1 X109.165 Y118.889 E0.02031
G1 X108.918 Y117.938 E0.03082
G1 X108.918 Y92.110 E0.80980
G1 X109.136 Y91.198 E0.02941
G1 X109.490 Y91.305 F10200.000
G1 F1800
G1 X109.957 Y90.508 E0.02898
G1 X110.736 Y89.785 E0.03330
G1 X111.229 Y89.523 E0.01753
G1 X112.087 Y89.295 E0.02784
G1 X137.910 Y89.298 E0.80964
G1 X138.513 Y89.423 E0.01932
G1 X139.128 Y89.697 E0.02110
G1 X139.992 Y90.457 E0.03609
G1 X140.472 Y91.214 E0.02809
G1 X140.705 Y92.087 E0.02835
G1 X140.705 Y117.868 E0.80834
G1 X140.510 Y118.695 E0.02664
G1 X140.043 Y119.492 E0.02898
G1 X139.264 Y120.215 E0.03330
G1 X138.771 Y120.477 E0.01752
G1 X137.913 Y120.705 E0.02783
G1 X112.132 Y120.705 E0.80834
G1 X111.305 Y120.510 E0.02664
G1 X110.508 Y120.043 E0.02898
G1 X109.785 Y119.264 E0.03330
G1 X109.523 Y118.771 E0.01752
G1 X109.295 Y117.913 E0.02783
G1 X109.295 Y92.132 E0.80834
G1 X109.476 Y91.364 E0.02476
G1 X109.831 Y91.468 F10200.000
G1 F1800
G1 X110.237 Y90.763 E0.02551
G1 X110.938 Y90.104 E0.03015
G1 X111.351 Y89.880 E0.01474
G1 X112.113 Y89.672 E0.02477
G1 X137.889 Y89.676 E0.80819
G1 X138.414 Y89.787 E0.01681
G1 X138.945 Y90.028 E0.01829
G1 X139.722 Y90.721 E0.03263
G1 X140.116 Y91.341 E0.02306
G1 X140.328 Y92.113 E0.02510
G1 X140.328 Y117.847 E0.80686
G1 X140.169 Y118.532 E0.02206
G1 X139.763 Y119.237 E0.02551
G1 X139.062 Y119.896 E0.03015
G1 X138.649 Y120.120 E0.01474
G1 X137.887 Y120.328 E0.02477
G1 X112.153 Y120.328 E0.80686
G1 X111.468 Y120.169 E0.02206
G1 X110.763 Y119.763 E0.02551
G1 X110.104 Y119.062 E0.03015
G1 X109.880 Y118.649 E0.01474
G1 X109.672 Y117.887 E0.02477
G1 X109.672 Y92.153 E0.80686
G1 X109.818 Y91.526 E0.02018
G1 X110.174 Y91.628 F10200.000
G1 F1800
G1 X110.518 Y91.015 E0.02203
G1 X111.143 Y90.422 E0.02703
G1 X111.476 Y90.237 E0.01196
G1 X112.140 Y90.049 E0.02163
G1 X137.868 Y90.053 E0.80668
G1 X138.311 Y90.150 E0.01423
G1 X138.759 Y90.358 E0.01548
G1 X139.450 Y90.983 E0.02920
G1 X139.762 Y91.471 E0.01818
G1 X139.951 Y92.140 E0.02179
G1 X139.951 Y117.826 E0.80537
G1 X139.826 Y118.372 E0.01756
G1 X139.482 Y118.985 E0.02203
G1 X138.857 Y119.578 E0.02703
G1 X138.524 Y119.763 E0.01196
G1 X137.860 Y119.951 E0.02162
G1 X112.174 Y119.951 E0.80537
G1 X111.628 Y119.826 E0.01756
G1 X111.015 Y119.482 E0.02203
G1 X110.422 Y118.857 E0.02703
G1 X110.237 Y118.524 E0.01196
G1 X110.049 Y117.860 E0.02162
G1 X110.049 Y92.174 E0.80537
G1 X110.160 Y91.686 E0.01568
G1 X110.801 Y91.266 F10200.000
G1 F1800
G1 X111.351 Y90.737 E0.02393
G1 X111.606 Y90.591 E0.00919
G1 X112.168 Y90.426 E0.01838
G1 X137.846 Y90.430 E0.80510
G1 X138.205 Y90.513 E0.01157
G1 X138.571 Y90.685 E0.01268
G1 X139.176 Y91.243 E0.02580
G1 X139.408 Y91.605 E0.01347
G1 X139.574 Y92.168 E0.01841
G1 X139.574 Y117.806 E0.80385
G1 X139.482 Y118.216 E0.01318
G1 X139.199 Y118.734 E0.01852
G1 X138.649 Y119.263 E0.02393
G1 X138.394 Y119.409 E0.00919
G1 X137.832 Y119.574 E0.01838
G1 X112.194 Y119.574 E0.80385
G1 X111.784 Y119.482 E0.01318
G1 X111.266 Y119.199 E0.01852
G1 X110.737 Y118.649 E0.02393
G1 X110.591 Y118.394 E0.00919
G1 X110.426 Y117.832 E0.01838
G1 X110.426 Y92.194 E0.80385
G1 X110.518 Y91.784 E0.01318
G1 X110.772 Y91.319 E0.01664
G1 X111.087 Y91.514 F10200.000
G1 F1800
G1 X111.564 Y91.048 E0.02089
G1 X111.741 Y90.944 E0.00643
G1 X112.198 Y90.803 E0.01500
G1 X137.824 Y90.807 E0.80350
G1 X138.062 Y90.862 E0.00767
G1 X138.382 Y91.013 E0.01109
G1 X138.901 Y91.501 E0.02233
G1 X139.056 Y91.742 E0.00898
G1 X139.197 Y92.198 E0.01495
G1 X139.197 Y117.786 E0.80231
G1 X139.136 Y118.064 E0.00892
G1 X138.913 Y118.486 E0.01497
G1 X138.436 Y118.952 E0.02089
G1 X138.259 Y119.056 E0.00643
G1 X137.802 Y119.197 E0.01500
G1 X112.214 Y119.197 E0.80231
G1 X111.936 Y119.136 E0.00892
G1 X111.514 Y118.913 E0.01497
G1 X111.048 Y118.436 E0.02089
G1 X110.944 Y118.259 E0.00643
G1 X110.803 Y117.802 E0.01500
G1 X110.803 Y92.214 E0.80231
G1 X110.864 Y91.936 E0.00892
G1 X111.059 Y91.567 E0.01309
G1 X111.212 Y92.082 F10200.000
G1 F1800
G1 X111.375 Y91.759 E0.01134
G1 X111.782 Y91.356 E0.01795
G1 X111.883 Y91.294 E0.00371
G1 X112.229 Y91.180 E0.01144
G1 X137.802 Y91.184 E0.80181
G1 X137.919 Y91.211 E0.00377
G1 X138.192 Y91.340 E0.00947
G1 X138.623 Y91.757 E0.01880
G1 X138.707 Y91.885 E0.00479
G1 X138.820 Y92.229 E0.01136
G1 X138.820 Y117.767 E0.80073
G1 X138.788 Y117.918 E0.00484
G1 X138.625 Y118.241 E0.01134
G1 X138.218 Y118.644 E0.01795
G1 X138.117 Y118.706 E0.00371
G1 X137.771 Y118.820 E0.01144
G1 X112.233 Y118.820 E0.80073
G1 X112.082 Y118.788 E0.00484
G1 X111.759 Y118.625 E0.01134
G1 X111.356 Y118.218 E0.01795
G1 X111.294 Y118.117 E0.00371
G1 X111.180 Y117.771 E0.01144
G1 X111.180 Y92.233 E0.80073
G1 X111.200 Y92.140 E0.00296
G1 X111.564 Y92.218 F10200.000
G1 F1800
G1 X111.667 Y92.000 E0.00757
G1 X112.010 Y91.657 E0.01522
G1 X112.264 Y91.557 E0.00856
G1 X137.750 Y91.557 E0.79908
G1 X138.000 Y91.667 E0.00856
G1 X138.343 Y92.010 E0.01522
G1 X138.443 Y92.264 E0.00856
G1 X138.443 Y117.750 E0.79908
G1 X138.333 Y118.000 E0.00856
G1 X137.990 Y118.343 E0.01522
G1 X137.736 Y118.443 E0.00856
G1 X112.250 Y118.443 E0.79908
G1 X112.000 Y118.333 E0.00856
G1 X111.657 Y117.990 E0.01522
G1 X111.557 Y117.736 E0.00856
G1 X111.557 Y92.278 E0.79821
G1 X111.963 Y92.237 F10200.000
G1 F1800
G1 X112.237 Y91.963 E0.01215
G1 X112.306 Y91.934 E0.00235
G1 X137.694 Y91.934 E0.79600
G1 X137.763 Y91.963 E0.00235
G1 X138.037 Y92.237 E0.01215
G1 X138.066 Y92.306 E0.00235
G1 X138.066 Y117.694 E0.79600
G1 X138.037 Y117.763 E0.00235
G1 X137.763 Y118.037 E0.01215
G1 X137.694 Y118.066 E0.00235
G1 X112.306 Y118.066 E0.79600
G1 X112.237 Y118.037 E0.00235
G1 X111.963 Y117.763 E0.01215
G1 X111.934 Y117.694 E0.00235
G1 X111.940 Y92.292 E0.79644
G1 X112.311 Y92.422 F10200.000
G1 F1800
G1 X112.422 Y92.311 E0.00490
G1 X137.578 Y92.311 E0.78875
G1 X137.689 Y92.422 E0.00490
G1 X137.689 Y117.578 E0.78875
G1 X137.578 Y117.689 E0.00490
G1 X112.422 Y117.689 E0.78875
G1 X112.311 Y117.578 E0.00490
G1 X112.311 Y92.482 E0.78687
G1 X112.710 Y92.710 F10200.000
G1 F1800
G1 X137.290 Y92.710 E0.77069
G1 X137.290 Y117.290 E0.77069
G1 X112.710 Y117.290 E0.77069
G1 X112.710 Y92.770 E0.76881
G1 F8160
G1 X115.819 Y92.762 E-0.76000
G1 E-0.04000 F2100.00000
G1 Z0.800 F10200.000
G1 X112.823 Y116.410 F10200.000
G1 Z0.200 F10200.000
G1 E0.80000 F2100.00000
G1 F1800
G1 X113.420 Y117.007 E0.02660
G1 X113.956 Y117.007 E0.01690
G1 X112.993 Y116.044 E0.04293
G1 X112.993 Y115.508 E0.01690
G1 X114.492 Y117.007 E0.06683
G1 X115.028 Y117.007 E0.01690
G1 X112.993 Y114.972 E0.09072
G1 X112.993 Y114.436 E0.01690
G1 X115.564 Y117.007 E0.11462
G1 X116.100 Y117.007 E0.01690
G1 X112.993 Y113.900 E0.13851
G1 X112.993 Y113.364 E0.01690
G1 X116.636 Y117.007 E0.16241
G1 X117.172 Y117.007 E0.01690
G1 X112.993 Y112.828 E0.18630
G1 X112.993 Y112.292 E0.01690
G1 X117.708 Y117.007 E0.21020
G1 X118.245 Y117.007 E0.01690
G1 X112.993 Y111.755 E0.23410
G1 X112.993 Y111.219 E0.01690
G1 X118.781 Y117.007 E0.25799
G1 X119.317 Y117.007 E0.01690
G1 X112.993 Y110.683 E0.28189
G1 X112.993 Y110.147 E0.01690
G1 X119.853 Y117.007 E0.30578
G1 X120.389 Y117.007 E0.01690
G1 X112.993 Y109.611 E0.32968
G1 X112.993 Y109.075 E0.01690
G1 X120.925 Y117.007 E0.35357
G1 X121.461 Y117.007 E0.01690
G1 X112.993 Y108.539 E0.37747
G1 X112.993 Y108.003 E0.01690
G1 X121.997 Y117.007 E0.40136
G1 X122.533 Y117.007 E0.01690
G1 X112.993 Y107.467 E0.42526
G1 X112.993 Y106.931 E0.01690
G1 X123.069 Y117.007 E0.44916
G1 X123.605 Y117.007 E0.01690
G1 X112.993 Y106.395 E0.47305
G1 X112.993 Y105.859 E0.01690
G1 X124.141 Y117.007 E0.49695
G1 X124.677 Y117.007 E0.01690
G1 X112.993 Y105.323 E0.52084
G1 X112.993 Y104.786 E0.01690
G1 X125.214 Y117.007 E0.54474
G1 X125.750 Y117.007 E0.01690
G1 X112.993 Y104.250 E0.56863
G1 X112.993 Y103.714 E0.01690
G1 X126.286 Y117.007 E0.59253
G1 X126.822 Y117.007 E0.01690
G1 X112.993 Y103.178 E0.61642
G1 X112.993 Y102.642 E0.01690
G1 X127.358 Y117.007 E0.64032
G1 X127.894 Y117.007 E0.01690
G1 X112.993 Y102.106 E0.66422
G1 X112.993 Y101.570 E0.01690
G1 X128.430 Y117.007 E0.68811
G1 X128.966 Y117.007 E0.01690
G1 X112.993 Y101.034 E0.71201
G1 X112.993 Y100.498 E0.01690
G1 X129.502 Y117.007 E0.73590
G1 X130.038 Y117.007 E0.01690
G1 X112.993 Y99.962 E0.75980
G1 X112.993 Y99.426 E0.01690
G1 X130.574 Y117.007 E0.78369
G1 X131.110 Y117.007 E0.01690
G1 X112.993 Y98.890 E0.80759
G1 X112.993 Y98.354 E0.01690
G1 X131.646 Y117.007 E0.83148
G1 X132.183 Y117.007 E0.01690
G1 X112.993 Y97.817 E0.85538
G1 X112.993 Y97.281 E0.01690
G1 X132.719 Y117.007 E0.87928
G1 X133.255 Y117.007 E0.01690
G1 X112.993 Y96.745 E0.90317
G1 X112.993 Y96.209 E0.01690
G1 X133.791 Y117.007 E0.92707
G1 X134.327 Y117.007 E0.01690
G1 X112.993 Y95.673 E0.95096
G1 X112.993 Y95.137 E0.01690
G1 X134.863 Y117.007 E0.97486
G1 X135.399 Y117.007 E0.01690
G1 X112.993 Y94.601 E0.99875
G1 X112.993 Y94.065 E0.01690
G1 X135.935 Y117.007 E1.02265
G1 X136.471 Y117.007 E0.01690
G1 X112.993 Y93.529 E1.04654
G1 X112.993 Y92.993 E0.01690
G1 X137.007 Y117.007 E1.07044
G1 X137.007 Y116.471 E0.01690
G1 X113.529 Y92.993 E1.04655
G1 X114.065 Y92.993 E0.01690
G1 X137.007 Y115.935 E1.02265
G1 X137.007 Y115.399 E0.01690
G1 X114.601 Y92.993 E0.99876
G1 X115.137 Y92.993 E0.01690
G1 X137.007 Y114.863 E0.97486
G1 X137.007 Y114.327 E0.01690
G1 X115.673 Y92.993 E0.95096
G1 X116.209 Y92.993 E0.01690
G1 X137.007 Y113.791 E0.92707
G1 X137.007 Y113.255 E0.01690
G1 X116.745 Y92.993 E0.90317
G1 X117.281 Y92.993 E0.01690
G1 X137.007 Y112.719 E0.87928
G1 X137.007 Y112.183 E0.01690
G1 X117.817 Y92.993 E0.85538
G1 X118.354 Y92.993 E0.01690
G1 X137.007 Y111.646 E0.83149
G1 X137.007 Y111.110 E0.01690
G1 X118.890 Y92.993 E0.80759
G1 X119.426 Y92.993 E0.01690
G1 X137.007 Y110.574 E0.78370
G1 X137.007 Y110.038 E0.01690
G1 X119.962 Y92.993 E0.75980
G1 X120.498 Y92.993 E0.01690
G1 X137.007 Y109.502 E0.73590
G1 X137.007 Y108.966 E0.01690
G1 X121.034 Y92.993 E0.71201
G1 X121.570 Y92.993 E0.01690
G1 X137.007 Y108.430 E0.68811
G1 X137.007 Y107.894 E0.01690
G1 X122.106 Y92.993 E0.66422
G1 X122.642 Y92.993 E0.01690
G1 X137.007 Y107.358 E0.64032
G1 X137.007 Y106.822 E0.01690
G1 X123.178 Y92.993 E0.61643
G1 X123.714 Y92.993 E0.01690
G1 X137.007 Y106.286 E0.59253
G1 X137.007 Y105.750 E0.01690
G1 X124.250 Y92.993 E0.56864
G1 X124.786 Y92.993 E0.01690
G1 X137.007 Y105.214 E0.54474
G1 X137.007 Y104.677 E0.01690
G1 X125.323 Y92.993 E0.52084
G1 X125.859 Y92.993 E0.01690
G1 X137.007 Y104.141 E0.49695
G1 X137.007 Y103.605 E0.01690
G1 X126.395 Y92.993 E0.47305
G1 X126.931 Y92.993 E0.01690
G1 X137.007 Y103.069 E0.44916
G1 X137.007 Y102.533 E0.01690
G1 X127.467 Y92.993 E0.42526
G1 X128.003 Y92.993 E0.01690
G1 X137.007 Y101.997 E0.40137
G1 X137.007 Y101.461 E0.01690
G1 X128.539 Y92.993 E0.37747
G1 X129.075 Y92.993 E0.01690
G1 X137.007 Y100.925 E0.35358
G1 X137.007 Y100.389 E0.01690
G1 X129.611 Y92.993 E0.32968
G1 X130.147 Y92.993 E0.01690
G1 X137.007 Y99.853 E0.30578
G1 X137.007 Y99.317 E0.01690
G1 X130.683 Y92.993 E0.28189
G1 X131.219 Y92.993 E0.01690
G1 X137.007 Y98.781 E0.25799
G1 X137.007 Y98.245 E0.01690
G1 X131.755 Y92.993 E0.23410
G1 X132.291 Y92.993 E0.01690
G1 X137.007 Y97.709 E0.21020
G1 X137.007 Y97.172 E0.01690
G1 X132.828 Y92.993 E0.18631
G1 X133.364 Y92.993 E0.01690
G1 X137.007 Y96.636 E0.16241
G1 X137.007 Y96.100 E0.01690
G1 X133.900 Y92.993 E0.13852
G1 X134.436 Y92.993 E0.01690
G1 X137.007 Y95.564 E0.11462
G1 X137.007 Y95.028 E0.01690
G1 X134.972 Y92.993 E0.09072
G1 X135.508 Y92.993 E0.01690
G1 X137.007 Y94.492 E0.06683
G1 X137.007 Y93.956 E0.01690
G1 X136.044 Y92.993 E0.04293
G1 X136.580 Y92.993 E0.01690
G1 X137.177 Y93.590 E0.02660
M106 S255
;BEFORE_LAYER_CHANGE
;0.4


G1 F8160
G1 X136.580 Y92.993 E-0.20634
G1 F8160
G1 X136.044 Y92.993 E-0.13106
G1 F8160
G1 X137.007 Y93.956 E-0.33303
G1 F8160
G1 X137.007 Y94.322 E-0.08957
G1 E-0.04000 F2100.00000
G1 Z0.800 F10200.000
;AFTER_LAYER_CHANGE
G4 S0
TMC_SET_STEP_E2
;0.4
M104 S210 ; set temperature
G1 X137.275 Y92.725 F10200.000
G1 Z0.400 F10200.000
G1 E0.80000 F2100.00000
M204 S800
G1 F2100
G1 X137.275 Y117.275 E0.83099
G1 X112.725 Y117.275 E0.83099
G1 X112.725 Y92.725 E0.83099
G1 X137.215 Y92.725 E0.82896
M204 S1000
G1 F8160
G1 X137.223 Y95.834 E-0.76000
G1 E-0.04000 F2100.00000
G1 Z1.000 F10200.000
G1 X112.847 Y93.676 F10200.000
G1 Z0.400 F10200.000
G1 E0.80000 F2100.00000
M204 S1500
G1 F5128
G1 X113.493 Y93.030 E0.03112
G1 X114.072 Y93.030 E0.01976
G1 X113.030 Y94.072 E0.05023
G1 X113.030 Y94.652 E0.01976
G1 X114.652 Y93.030 E0.07817
G1 X115.232 Y93.030 E0.01976
G1 X113.030 Y95.232 E0.10611
G1 X113.030 Y95.811 E0.01976
G1 X115.811 Y93.030 E0.13405
G1 X116.391 Y93.030 E0.01976
G1 X113.030 Y96.391 E0.16199
G1 X113.030 Y96.971 E0.01976
G1 X116.971 Y93.030 E0.18993
G1 X117.550 Y93.030 E0.01976
G1 X113.030 Y97.550 E0.21787
G1 X113.030 Y98.130 E0.01976
G1 X118.130 Y93.030 E0.24581
G1 X118.710 Y93.030 E0.01976
G1 X113.030 Y98.710 E0.27375
G1 X113.030 Y99.289 E0.01976
G1 X119.289 Y93.030 E0.30170
G1 X119.869 Y93.030 E0.01976
G1 X113.030 Y99.869 E0.32964
G1 X113.030 Y100.449 E0.01976
G1 X120.449 Y93.030 E0.35758
G1 X121.029 Y93.030 E0.01976
G1 X113.030 Y101.029 E0.38552
G1 X113.030 Y101.608 E0.01976
G1 X121.608 Y93.030 E0.41346
G1 X122.188 Y93.030 E0.01976
G1 X113.030 Y102.188 E0.44140
G1 X113.030 Y102.768 E0.01976
G1 X122.768 Y93.030 E0.46934
G1 X123.347 Y93.030 E0.01976
G1 X113.030 Y103.347 E0.49728
G1 X113.030 Y103.927 E0.01976
G1 X123.927 Y93.030 E0.52522
