; generated by Slic3r Prusa Edition 1.41.2+win64 on 2019-02-06 at 08:49:16

; 

; external perimeters extrusion width = 0.45mm
; perimeters extrusion width = 0.45mm
; infill extrusion width = 0.45mm
; solid infill extrusion width = 0.45mm
; top infill extrusion width = 0.40mm
; first layer extrusion width = 0.42mm

; external perimeters extrusion width = 0.45mm
; perimeters extrusion width = 0.45mm
; infill extrusion width = 0.45mm
; solid infill extrusion width = 0.45mm
; top infill extrusion width = 0.40mm
; first layer extrusion width = 0.42mm

; external perimeters extrusion width = 0.45mm
; perimeters extrusion width = 0.45mm
; infill extrusion width = 0.45mm
; solid infill extrusion width = 0.45mm
; top infill extrusion width = 0.40mm
; first layer extrusion width = 0.42mm

M73 P0 R217
M73 Q0 S220
M201 X1000 Y1000 Z1000 E8000 ; sets maximum accelerations, mm/sec^2
M203 X200 Y200 Z12 E120 ; sets maximum feedrates, mm/sec
M204 P1250 R1250 T1250 ; sets acceleration (P, T) and retract acceleration (R), mm/sec^2
M205 X8.00 Y8.00 Z0.40 E1.50 ; sets the jerk limits, mm/sec
M205 S0 T0 ; sets the minimum extruding and travel feed rate, mm/sec
M107
M107
M115 U3.5.1 ; tell printer latest fw version
M83  ; extruder relative mode
M104 S215 ; set extruder temp
M140 S60 ; set bed temp
M190 S60 ; wait for bed temp
M109 S215 ; wait for extruder temp
G28 W ; home all without mesh bed level
G80 ; mesh bed leveling
G21 ; set units to millimeters

; Send the filament type to the MMU2.0 unit.
; E stands for extruder number, F stands for filament type (0: default; 1:flex; 2: PVA)
M403 E0 F0
M403 E1 F0
M403 E2 F0
M403 E3 F0
M403 E4 F0


;go outside print area
G1 Y-3.0 F1000.0
G1 Z0.4 F1000.0
; select extruder
T0
; initial load
G1 X55.0 E29.0 F1073.0
M73 Q0 S220
M73 P0 R217
G1 X5.0 E29.0 F1800.0
G1 X55.0 E8.0 F2000.0
G1 Z0.3 F1000.0
G92 E0.0
G1 X240.0 E25.0  F2200.0
G1 Y-2.0 F1000.0
G1 X55.0 E25 F1400.0
G1 Z0.20 F1000.0
G1 X5.0 E4.0 F1000.0
G92 E0.0


M221 S95
G90 ; use absolute coordinates
M83 ; use relative distances for extrusion
G92 E0.0
G21 ; set units to millimeters
G90 ; use absolute coordinates
M83 ; use relative distances for extrusion
T0
M900 K30; Filament gcode
G1 Z0.200 F10800.000
;BEFORE_LAYER_CHANGE
G92 E0.0
;0.2


G1 E-0.80000 F2100.00000
G1 Z0.800 F10800.000
G1 Z0.200
;AFTER_LAYER_CHANGE
;0.2
M900 K0
G1 E-2.20000 F2100.00000
G1 Z0.800 F10800.000
G1 X188.191 Y86.978
G1 Z0.200
G1 E3.00000 F2100.00000
;-------------------------------------
; CP WIPE TOWER FIRST LAYER BRIM START
G1 X188.191 Y115.598 E1.6316 F2400
G1 X185.691 Y116.098  F7000
G1 Y86.478 E1.2383 F2100
G1 X124.691 E2.5502
G1 Y116.098 E1.2383
G1 X185.691 E2.5502
G1 X186.191 Y116.598  F7000
G1 Y85.978 E1.2801 F2100
G1 X124.191 E2.5920
G1 Y116.598 E1.2801
G1 X186.191 E2.5920
G1 X186.691 Y117.098  F7000
G1 Y85.478 E1.3219 F2100
G1 X123.691 E2.6338
G1 Y117.098 E1.3219
G1 X186.691 E2.6338
G1 X187.191 Y117.598  F7000
G1 Y84.978 E1.3637 F2100
G1 X123.191 E2.6756
G1 Y117.598 E1.3637
G1 X187.191 E2.6756
G1 X185.191 Y115.598  F7000
G1 X125.191
G1 X185.191
; CP WIPE TOWER FIRST LAYER BRIM END
;-----------------------------------

M900 K30; Filament gcode
G1 F8640
G1 X181.900 Y115.598 E-0.76000
G1 E-0.04000 F2100.00000
G1 Z0.800 F10800.000
G1 X48.694 Y96.520
G1 Z0.200
G1 E0.80000 F2100.00000
M204 S1000
G1 F1200
G1 X48.833 Y95.488 E0.03264
G1 X49.041 Y95.011 E0.01633
G1 X49.344 Y94.576 E0.01662
G1 X49.763 Y94.160 E0.01850
G1 X65.979 Y80.894 E0.65692
G1 X66.704 Y80.429 E0.02701
G1 X67.335 Y80.181 E0.02125
G1 X68.459 Y80.026 E0.03557
G1 X85.928 Y80.221 E0.54777
G1 X86.826 Y80.378 E0.02857
G1 X91.030 Y82.357 E0.14569
G1 X117.277 Y95.613 E0.92196
G1 X117.960 Y96.065 E0.02567
G1 X118.476 Y96.611 E0.02356
G1 X118.903 Y97.366 E0.02722
G1 X119.111 Y98.090 E0.02360
G1 X126.617 Y147.127 E1.55543
G1 X126.721 Y148.689 E0.04908
G1 X126.720 Y150.762 E0.06501
G1 X126.622 Y152.668 E0.05985
G1 X126.425 Y154.035 E0.04331
G1 X125.919 Y156.285 E0.07230
G1 X125.636 Y157.052 E0.02564
G1 X125.098 Y157.895 E0.03134
G1 X124.407 Y158.556 E0.02999
G1 X123.882 Y158.863 E0.01906
G1 X123.250 Y159.041 E0.02059
G1 X122.774 Y159.083 E0.01498
G1 X122.101 Y159.015 E0.02122
G1 X86.143 Y149.877 E1.16327
G1 X85.441 Y149.626 E0.02337
G1 X84.772 Y149.214 E0.02463
G1 X84.157 Y148.601 E0.02721
G1 X49.892 Y102.565 E1.79937
G1 X49.599 Y102.013 E0.01959
G1 X49.450 Y101.517 E0.01626
G1 X48.703 Y96.579 E0.15658
M73 Q0 S219
; PURGING FINISHED
G1 F8640
G1 X48.833 Y95.488 E-0.25368
G1 X49.041 Y95.011 E-0.12024
G1 X49.344 Y94.576 E-0.12239
G1 X49.763 Y94.160 E-0.13627
G1 X50.190 Y93.811 E-0.12743
G1 E-0.04000 F2100.00000
G1 Z0.800 F10800.000
G1 X117.527 Y139.726
G1 Z0.200
G1 E0.80000 F2100.00000
G1 F1200
G1 X118.008 Y139.669 E0.01519
G1 X118.459 Y139.654 E0.01417
G1 X119.059 Y139.666 E0.01881
G1 X119.564 Y139.613 E0.01591
G1 X119.887 Y139.500 E0.01071
G1 X120.174 Y139.343 E0.01027
G1 X120.745 Y138.967 E0.02143
G1 X121.525 Y138.494 E0.02861
G1 X121.631 Y138.797 E0.01007
G1 X121.873 Y139.277 E0.01683
M73 P0 R216
G1 X121.936 Y139.449 E0.00575
G1 X122.083 Y140.089 E0.02057
G1 X122.246 Y140.630 E0.01773
G1 X122.589 Y141.527 E0.03012
G1 X122.768 Y142.314 E0.02530
G1 X122.846 Y142.767 E0.01441
G1 X123.058 Y143.542 E0.02519
G1 X123.136 Y143.751 E0.00698
G1 X123.373 Y145.416 E0.05273
G1 X123.451 Y145.879 E0.01471
G1 X123.631 Y146.687 E0.02598
G1 X123.790 Y147.831 E0.03620
G1 X123.860 Y148.850 E0.03203
G1 X123.873 Y149.348 E0.01563
G1 X123.006 Y149.515 E0.02768
G1 X121.347 Y150.006 E0.05427
G1 X121.267 Y149.624 E0.01224
G1 X121.098 Y148.544 E0.03425
G1 X120.638 Y146.954 E0.05190
G1 X120.156 Y145.632 E0.04413
G1 X119.805 Y144.507 E0.03692
G1 X119.338 Y143.441 E0.03650
G1 X118.874 Y142.534 E0.03194
G1 X118.422 Y141.386 E0.03870
G1 X117.668 Y139.943 E0.05103
G1 X117.560 Y139.777 E0.00625
G1 X116.879 Y139.424 F10800.000
G1 F1200
G1 X117.979 Y139.293 E0.03473
G1 X118.457 Y139.277 E0.01499
G1 X119.043 Y139.288 E0.01840
G1 X119.481 Y139.242 E0.01379
G1 X119.733 Y139.154 E0.00837
G1 X119.980 Y139.019 E0.00883
G1 X120.544 Y138.648 E0.02115
G1 X121.728 Y137.930 E0.04345
G1 X121.979 Y138.650 E0.02390
G1 X122.220 Y139.127 E0.01675
G1 X122.298 Y139.342 E0.00719
G1 X122.447 Y139.992 E0.02090
G1 X122.603 Y140.508 E0.01691
G1 X122.950 Y141.418 E0.03053
G1 X123.138 Y142.240 E0.02644
G1 X123.215 Y142.685 E0.01416
G1 X123.417 Y143.426 E0.02410
G1 X123.501 Y143.649 E0.00746
G1 X123.559 Y143.960 E0.00991
G1 X123.745 Y145.360 E0.04427
G1 X123.821 Y145.806 E0.01420
G1 X124.002 Y146.620 E0.02615
G1 X124.165 Y147.792 E0.03710
G1 X124.237 Y148.832 E0.03269
G1 X124.258 Y149.644 E0.02547
G1 X123.095 Y149.882 E0.03725
G1 X121.563 Y150.324 E0.04997
G1 X121.332 Y150.420 E0.00784
G1 X121.089 Y150.573 E0.00901
G1 X120.896 Y149.691 E0.02828
G1 X120.729 Y148.626 E0.03381
G1 X120.279 Y147.071 E0.05076
G1 X119.799 Y145.752 E0.04401
G1 X119.452 Y144.640 E0.03655
G1 X118.998 Y143.603 E0.03549
G1 X118.530 Y142.690 E0.03217
G1 X118.079 Y141.543 E0.03865
G1 X117.343 Y140.134 E0.04982
G1 X116.912 Y139.474 E0.02472
G1 X117.264 Y139.531 F10800.000
G1 F8640
G1 X117.979 Y139.293 E-0.24993
G1 X118.457 Y139.277 E-0.11038
G1 X119.043 Y139.288 E-0.13548
G1 X119.481 Y139.242 E-0.10158
G1 X119.733 Y139.154 E-0.06164
G1 X119.980 Y139.019 E-0.06500
G1 X120.110 Y138.934 E-0.03599
G1 E-0.04000 F2100.00000
G1 Z0.800 F10800.000
G1 X89.648 Y144.487
G1 Z0.200
G1 E0.80000 F2100.00000
G1 F1200
G1 X89.239 Y145.178 E0.02519
G1 X88.816 Y145.808 E0.02379
G1 X88.126 Y146.710 E0.03559
G1 X87.916 Y146.917 E0.00927
G1 X87.718 Y147.045 E0.00739
G1 X87.497 Y147.150 E0.00766
G1 X87.184 Y147.220 E0.01005
G1 X86.955 Y147.208 E0.00720
G1 X86.689 Y147.140 E0.00860
G1 X86.457 Y147.006 E0.00839
G1 X86.367 Y146.916 E0.00399
G1 X86.234 Y146.677 E0.00858
G1 X86.214 Y146.591 E0.00277
G1 X86.213 Y146.366 E0.00705
G1 X86.249 Y146.157 E0.00665
G1 X86.404 Y145.837 E0.01118
G1 X86.483 Y145.713 E0.00459
G1 X86.698 Y145.460 E0.01041
G1 X87.139 Y144.998 E0.02004
G1 X88.086 Y144.080 E0.04133
G1 X88.330 Y144.110 E0.00772
G1 X88.578 Y144.170 E0.00800
G1 X89.590 Y144.470 E0.03309
G1 X90.244 Y144.284 F10800.000
G1 F1200
G1 X90.133 Y144.407 E0.00519
G1 X89.558 Y145.379 E0.03543
G1 X89.123 Y146.028 E0.02449
G1 X88.409 Y146.960 E0.03680
G1 X88.153 Y147.213 E0.01130
G1 X87.902 Y147.375 E0.00937
G1 X87.620 Y147.508 E0.00976
G1 X87.217 Y147.599 E0.01296
G1 X86.913 Y147.584 E0.00953
G1 X86.750 Y147.556 E0.00519
G1 X86.552 Y147.492 E0.00653
G1 X86.410 Y147.427 E0.00488
G1 X86.219 Y147.300 E0.00719
G1 X86.073 Y147.157 E0.00641
G1 X85.952 Y146.971 E0.00694
G1 X85.875 Y146.798 E0.00596
G1 X85.837 Y146.635 E0.00525
G1 X85.836 Y146.335 E0.00941
G1 X85.886 Y146.041 E0.00936
G1 X86.075 Y145.652 E0.01355
G1 X86.179 Y145.489 E0.00607
G1 X86.417 Y145.208 E0.01156
G1 X86.873 Y144.730 E0.02069
G1 X87.543 Y144.095 E0.02896
G1 X87.947 Y143.683 E0.01806
G1 X88.397 Y143.738 E0.01423
G1 X88.676 Y143.805 E0.00900
G1 X90.188 Y144.264 E0.04953
G1 X90.096 Y144.358 F10800.000
G1 F8640
G1 X90.133 Y144.407 E-0.03523
G1 X89.558 Y145.379 E-0.26090
G1 X89.123 Y146.028 E-0.18036
G1 X88.409 Y146.960 E-0.27098
G1 X88.371 Y146.998 E-0.01253
G1 E-0.04000 F2100.00000
G1 Z0.800 F10800.000
G1 X87.993 Y141.371
G1 Z0.200
G1 E0.80000 F2100.00000
G1 F1200
G1 X86.892 Y141.425 E0.03457
G1 X86.219 Y141.530 E0.02135
G1 X85.718 Y141.573 E0.01577
G1 X84.926 Y141.577 E0.02485
G1 X84.659 Y141.558 E0.00839
G1 X84.313 Y141.474 E0.01115
G1 X84.225 Y141.435 E0.00301
G1 X84.019 Y141.284 E0.00802
G1 X83.944 Y141.191 E0.00373
G1 X83.897 Y141.068 E0.00415
G1 X83.884 Y140.932 E0.00426
G1 X83.899 Y140.830 E0.00325
G1 X83.974 Y140.655 E0.00597
G1 X84.147 Y140.445 E0.00854
G1 X84.278 Y140.342 E0.00520
G1 X84.637 Y140.163 E0.01259
G1 X84.856 Y140.098 E0.00716
G1 X85.213 Y140.029 E0.01141
G1 X86.452 Y139.960 E0.03892
G1 X88.475 Y139.985 E0.06341
G1 X89.338 Y139.912 E0.02716
G1 X89.162 Y140.093 E0.00792
G1 X88.728 Y140.633 E0.02171
G1 X88.144 Y141.173 E0.02493
G1 X88.030 Y141.323 E0.00592
G1 F8640
G1 X86.892 Y141.425 E-0.26370
G1 X86.219 Y141.530 E-0.15726
G1 X85.718 Y141.573 E-0.11610
G1 X84.926 Y141.577 E-0.18304
G1 X84.753 Y141.565 E-0.03990
G1 E-0.04000 F2100.00000
G1 Z0.800 F10800.000
G1 X90.158 Y139.417
G1 Z0.200
G1 E0.80000 F2100.00000
G1 F1200
G1 X90.247 Y139.302 E0.00455
G1 X90.305 Y139.027 E0.00882
G1 X90.278 Y138.639 E0.01220
G1 X90.108 Y138.246 E0.01343
G1 X89.908 Y137.937 E0.01152
G1 X89.441 Y137.324 E0.02419
G1 X88.257 Y135.879 E0.05856
G1 X88.011 Y135.521 E0.01362
G1 X87.790 Y135.138 E0.01386
G1 X87.606 Y134.769 E0.01293
G1 X87.406 Y134.297 E0.01607
G1 X87.230 Y133.731 E0.01859
G1 X87.127 Y133.280 E0.01449
G1 X87.099 Y133.075 E0.00651
G1 X87.069 Y132.512 E0.01766
G1 X87.106 Y132.006 E0.01592
G1 X87.193 Y131.592 E0.01327
G1 X87.327 Y131.220 E0.01240
G1 X87.530 Y130.816 E0.01419
G1 X87.864 Y130.312 E0.01894
G1 X88.883 Y129.039 E0.05112
G1 X89.533 Y128.175 E0.03389
G1 X89.833 Y127.675 E0.01828
G1 X90.053 Y127.170 E0.01728
G1 X90.224 Y126.659 E0.01690
G1 X90.331 Y126.138 E0.01669
G1 X90.366 Y125.666 E0.01482
G1 X91.746 Y125.421 E0.04395
G1 X92.730 Y125.353 E0.03095
G1 X93.498 Y125.258 E0.02426
G1 X94.427 Y125.026 E0.03000
G1 X95.759 Y124.766 E0.04256
G1 X96.165 Y124.636 E0.01338
G1 X96.999 Y124.323 E0.02790
G1 X98.436 Y124.033 E0.04599
G1 X99.849 Y123.592 E0.04642
G1 X100.422 Y123.372 E0.01923
G1 X101.809 Y122.784 E0.04724
G1 X102.361 Y122.516 E0.01923
G1 X103.471 Y121.839 E0.04078
G1 X103.757 Y121.609 E0.01150
G1 X104.367 Y121.021 E0.02656
G1 X104.554 Y120.868 E0.00758
G1 X105.106 Y120.556 E0.01988
G1 X105.628 Y121.040 E0.02232
G1 X106.109 Y121.414 E0.01910
G1 X106.463 Y121.737 E0.01503
G1 X107.098 Y122.218 E0.02496
G1 X107.525 Y122.592 E0.01781
G1 X108.158 Y122.990 E0.02345
G1 X108.376 Y123.095 E0.00760
G1 X108.586 Y123.234 E0.00788
G1 X109.372 Y123.855 E0.03143
G1 X110.035 Y124.316 E0.02531
G1 X111.082 Y125.093 E0.04086
G1 X111.736 Y125.618 E0.02629
G1 X112.458 Y126.164 E0.02842
G1 X112.816 Y126.471 E0.01477
G1 X112.910 Y126.598 E0.00495
G1 X113.889 Y127.638 E0.04478
G1 X113.071 Y128.404 E0.03515
G1 X112.359 Y129.120 E0.03166
G1 X111.934 Y129.416 E0.01625
G1 X110.006 Y130.547 E0.07006
G1 X109.759 Y130.737 E0.00979
G1 X108.532 Y129.681 E0.05076
G1 X108.088 Y129.342 E0.01750
G1 X107.785 Y129.163 E0.01106
G1 X106.866 Y128.492 E0.03566
G1 X106.240 Y128.139 E0.02254
G1 X105.915 Y127.917 E0.01236
G1 X105.194 Y127.523 E0.02574
G1 X104.296 Y127.137 E0.03065
G1 X102.836 Y126.669 E0.04807
G1 X102.133 Y126.519 E0.02254
G1 X101.689 Y126.446 E0.01411
G1 X101.223 Y126.401 E0.01470
G1 X100.630 Y126.376 E0.01859
G1 X99.852 Y126.409 E0.02443
G1 X98.998 Y126.532 E0.02704
G1 X98.131 Y126.739 E0.02796
G1 X97.646 Y126.894 E0.01595
G1 X96.868 Y127.207 E0.02630
G1 X96.100 Y127.583 E0.02680
G1 X94.811 Y128.341 E0.04689
G1 X93.805 Y129.000 E0.03771
G1 X93.142 Y129.469 E0.02546
G1 X91.928 Y130.437 E0.04869
G1 X91.157 Y131.182 E0.03361
G1 X90.641 Y131.789 E0.02498
G1 X90.209 Y132.512 E0.02639
G1 X90.060 Y132.886 E0.01262
G1 X89.944 Y133.306 E0.01370
G1 X89.895 Y133.748 E0.01394
G1 X89.908 Y134.189 E0.01384
G1 X89.980 Y134.638 E0.01425
G1 X90.112 Y135.161 E0.01691
G1 X90.338 Y135.820 E0.02185
G1 X90.678 Y136.561 E0.02556
G1 X91.167 Y137.393 E0.03025
G1 X91.622 Y138.039 E0.02477
G1 X92.037 Y138.526 E0.02007
G1 X92.315 Y138.815 E0.01259
G1 X91.835 Y138.971 E0.01583
G1 X90.215 Y139.398 E0.05252
G1 F8640
G1 X90.247 Y139.302 E-0.02335
G1 X90.305 Y139.027 E-0.06494
G1 X90.278 Y138.639 E-0.08983
G1 X90.108 Y138.246 E-0.09887
G1 X89.908 Y137.937 E-0.08487
G1 X89.441 Y137.324 E-0.17811
G1 X88.837 Y136.587 E-0.22001
G1 E-0.04000 F2100.00000
G1 Z0.800 F10800.000
G1 X93.050 Y138.906
G1 Z0.200
G1 E0.80000 F2100.00000
G1 F1200
G1 X92.342 Y139.209 E0.02418
G1 X91.937 Y139.334 E0.01326
G1 X90.455 Y139.716 E0.04801
G1 X90.254 Y139.782 E0.00662
G1 X89.914 Y139.949 E0.01187
G1 X89.631 Y140.152 E0.01094
G1 X89.445 Y140.344 E0.00836
G1 X89.005 Y140.891 E0.02202
G1 X88.424 Y141.428 E0.02479
G1 X88.170 Y141.760 E0.01311
G1 X88.017 Y141.747 E0.00484
G1 X86.934 Y141.800 E0.03398
G1 X86.265 Y141.904 E0.02124
G1 X85.736 Y141.950 E0.01665
G1 X84.913 Y141.954 E0.02580
G1 X84.600 Y141.932 E0.00984
G1 X84.191 Y141.832 E0.01319
G1 X84.036 Y141.763 E0.00533
G1 X83.766 Y141.566 E0.01047
G1 X83.663 Y141.454 E0.00478
G1 X83.604 Y141.359 E0.00350
G1 X83.527 Y141.155 E0.00685
G1 X83.504 Y140.923 E0.00730
G1 X83.533 Y140.726 E0.00624
G1 X83.642 Y140.471 E0.00870
G1 X83.760 Y140.302 E0.00645
G1 X83.894 Y140.164 E0.00605
G1 X84.066 Y140.029 E0.00685
G1 X84.274 Y139.909 E0.00751
G1 X84.508 Y139.808 E0.00799
G1 X84.766 Y139.731 E0.00844
G1 X85.159 Y139.655 E0.01255
G1 X85.444 Y139.627 E0.00900
G1 X86.447 Y139.583 E0.03146
G1 X88.463 Y139.608 E0.06324
G1 X89.226 Y139.551 E0.02397
G1 X89.471 Y139.494 E0.00789
G1 X89.715 Y139.373 E0.00856
G1 X89.896 Y139.140 E0.00925
G1 X89.925 Y139.001 E0.00444
G1 X89.906 Y138.730 E0.00853
G1 X89.775 Y138.424 E0.01043
G1 X89.600 Y138.154 E0.01008
G1 X89.146 Y137.559 E0.02347
G1 X88.313 Y136.561 E0.04077
G1 X87.953 Y136.102 E0.01827
G1 X87.692 Y135.722 E0.01446
G1 X87.458 Y135.317 E0.01469
G1 X87.264 Y134.927 E0.01365
G1 X87.051 Y134.427 E0.01703
G1 X86.866 Y133.829 E0.01963
G1 X86.756 Y133.349 E0.01545
G1 X86.723 Y133.111 E0.00753
G1 X86.691 Y132.508 E0.01891
G1 X86.731 Y131.964 E0.01711
G1 X86.766 Y131.736 E0.00723
G1 X86.829 Y131.494 E0.00786
G1 X86.877 Y131.321 E0.00561
G1 X86.984 Y131.063 E0.00875
G1 X87.198 Y130.637 E0.01495
G1 X87.297 Y130.465 E0.00624
G1 X87.562 Y130.086 E0.01450
G1 X88.585 Y128.808 E0.05132
G1 X89.219 Y127.964 E0.03310
G1 X89.497 Y127.502 E0.01690
G1 X89.701 Y127.035 E0.01599
G1 X89.859 Y126.561 E0.01566
G1 X89.958 Y126.079 E0.01543
G1 X89.990 Y125.790 E0.00912
G1 X89.983 Y125.326 E0.01456
G1 X90.393 Y125.283 E0.01293
G1 X91.699 Y125.046 E0.04161
G1 X92.694 Y124.978 E0.03128
G1 X93.429 Y124.887 E0.02322
G1 X94.345 Y124.658 E0.02959
G1 X95.665 Y124.401 E0.04217
G1 X96.042 Y124.280 E0.01240
G1 X96.885 Y123.963 E0.02826
G1 X97.153 Y123.895 E0.00865
G1 X97.862 Y123.776 E0.02254
G1 X98.338 Y123.669 E0.01532
G1 X99.726 Y123.235 E0.04557
G1 X100.281 Y123.022 E0.01864
